!!!!SEGMENT: Ric2034-Salve_regina
!!!id: Ric2034
!!!AGN: Motet
!!!voices: 2
!!!COM: Jean Richafort
!!!OTL: Salve regina
**kern	**kern
*part2	*part1
*staff2	*staff1
*I"Bassus	*I"Tenor
*I'B.	*I'T.
*clefGv2	*clefG2
*k[]	*k[]
*M2/1	*M2/1
*met(C|)	*met(C|)
=1	=1
!	!LO:TX:a:t=Superius not extant
!!section: Prima pars: Salve regina
!!!OMD: Prima pars: Salve regina
2.a	0r
8gL	.
8aJ	.
2b	.
[2a	.
=2	=2
4a]	1.a
4g	.
4f	.
4e	.
2d	.
2e	4g
.	4f
=3	=3
4e	2g
4d	.
4c	2.a
4B	.
2c	.
.	4g
[2d	[2f
=4	=4
4d]	4f]
4c	4e
4B	4d
4A	4c
2B	2d
[2c	2e
=5	=5
2c]	2A
4B	1a
4A	.
1B	.
.	2g
=6	=6
1A	2f
.	4e
.	4d
1r	2f
.	2e
=7	=7
1.a	1r
.	[1a
2g	.
=8	=8
2.f	2a]
.	2g
4e	.
2d	2f
2c	2e
=9	=9
1d	2f
.	4e
.	4d
1A	1e
=10	=10
2r	1d
2a	.
2g	2r
2f	2d
=11	=11
2e	2e
2d	2f
2c	4g
.	4e
2B	4f
.	4g
=12	=12
2.A	2a
.	2a
8GL	.
8AJ	.
2G	2d
2F	[2a
=13	=13
1f	4a]
.	4g
.	4f
.	4e
2d	2f
2e	[2e
=14	=14
2c	4e]
.	4d
2d	2.d
1A	.
.	8c#iL
.	8BJ
.	2c#i
=15	=15
2r	1d
2a	.
2b	1r
[2a	.
=16	=16
4a]	1.a
4g	.
4f	.
4e	.
2d	.
[2e	4g
.	4f
=17	=17
4e]	2g
4d	.
4c	2.a
4B	.
2c	.
.	4g
[2d	[2f
=18	=18
4d]	4f]
4c	4e
4B	4d
4A	4c
2B	2d
[2c	2e
=19	=19
2c]	2A
4B	1a
4A	.
1B	.
.	2g
=20	=20
1A	2f
.	4e
.	4d
1r	2f
.	2e
=21	=21
1.a	1r
.	[1a
2g	.
=22	=22
2.f	2a]
.	2g
4e	.
2d	2f
2c	2e
=23	=23
1d	2f
.	4e
.	4d
1A	1e
=24	=24
2r	1d
2a	.
2g	2r
2f	2d
=25	=25
2e	2e
2d	2f
2c	4g
.	4e
2B	4f
.	4g
=26	=26
2.A	1a
8GL	.
8AJ	.
2G	2d
2F	[2a
=27	=27
1f	4a]
.	4g
.	4f
.	4e
2d	2f
2e	[2e
=28	=28
2c	4e]
.	4d
2d	2.d
1A	.
.	8c#iL
.	8BJ
.	2c#i
=29	=29
2r	0d
2.d	.
4e	.
[2f	.
=30	=30
2f]	0r
4e	.
4d	.
2e	.
2A	.
=31	=31
1B-X	1d
1A	1c
=32	=32
2r	2.f
1d	.
.	4g
.	4a
.	4b
2c	[2cc
=33	=33
2.f	4cc]
.	4b
.	2a
4d	.
2e	2g
[2f	[2a
=34	=34
2f]	2a]
2d	4g
.	4f
2.e	2g
.	4c
4d	4d
=35	=35
2c	4e
.	4d
2d	1f
1B	.
.	4e
.	4d
=36	=36
1A	2e
.	2c
2r	1f
[2d	.
=37	=37
2d]	1e
2c	.
4B	1r
4A	.
[2d	.
=38	=38
2d]	2r
2c	1g
1d	.
.	2f
=39	=39
2r	2.e
1g	.
.	4f
.	2g
2f	[2a
=40	=40
1e	4a]
.	4g
.	2.g
1d	.
.	8f#iL
.	8eJ
.	2f#i
=41	=41
2r	2g
2c	2c
2B	2d
[2c	4e
.	4f
=42	=42
2c]	4g
.	4e
4B	1a
4A	.
2B	.
2c	2g
=43	=43
1.F	1.a
2G	2g
=44	=44
2A	2f
2B	4e
.	4d
1A	1e
=45	=45
2r	1d
2d	.
4d	1r
4c	.
4d	.
4e	.
=46	=46
4f	1d
4g	.
2.f	.
.	1c
8eL	.
8dJ	.
2e	.
=47	=47
2f	2.f
2.d	.
.	4g
.	2a
4c	.
4B	[2b-i
4A	.
=48	=48
2G	4b-]
.	4a
2A	2.a
2.e	.
.	8gL
.	8fJ
.	2g
4d	.
=49	=49
2c	1a
2d	.
1B	1r
=50	=50
1A	2r
.	1cc
1c	.
.	2g
=51	=51
2c	1a
2d	.
2e	2g
4A	[2a
4B	.
=52	=52
4c	4a]
4A	4g
1d	2f
.	4e
.	4d
2c	2e
=53	=53
1d	2.f
.	4d
1r	2e
.	[2f
=54	=54
2r	4f]
.	4e
2G	2.e
2A	.
.	8dL
.	8cJ
2B	2d
=55	=55
1c	1e
2A	2r
[2c	2g
=56	=56
2c]	2a
2B	2b
1A	[1cc
=57	=57
[0G	2cc]
.	4b
.	4a
.	2b
.	[2g
=58	=58
0G]	2g]
.	4f
.	4e
.	2d
.	[2e
=59	=59
1r	2e]
.	4d
.	4c
2r	1d
2G	.
=60	=60
4A	0c
4B	.
4c	.
4d	.
4e	.
4f	.
2g	.
=61	=61
2c	1r
1f	.
.	1c
2e	.
=62	=62
1f	1d
2r	1c
2F	.
=63	=63
4F	0f
4G	.
4A	.
4F	.
[1B-X	.
=64	=64
1B-]	1e
1A	1f
=65	=65
1.d	2f
.	2e
.	2d
2c	2c
=66	=66
2.B-X	2f
.	2.g
4A	.
2G	.
.	4f
[2c	4e
.	4d
=67	=67
2c]	2c
2B-i	2d
1A	1e
=68	=68
0dl	0dl
=69||	=69||
!!section: Secunda pars: Eia ergo advocata
!!!OMD: Secunda pars: Eia ergo advocata
1f	0r
2e	.
[2d	.
=70	=70
4d]	1f
4c	.
4B	.
4A	.
4G	1g
4A	.
4B	.
4c	.
=71	=71
4d	1f
4c	.
4A	.
4B	.
4c	2.e
4d	.
2e	.
.	4f
=72	=72
4e	2g
4d	.
2c	2.a
1B	.
.	8g#iL
.	8f#iJ
.	2g#i
=73	=73
1A	0a
[1f	.
=74	=74
2f]	1r
2e	.
2d	2r
4c	2cc
4B	.
=75	=75
2A	2cc
2B	2b
2c	[1a
[2d	.
=76	=76
4d]	2a]
4G	.
1c	2g
.	2a
2B	4g
.	4f
=77	=77
2.c	2.e
4B	4d
4A	2e
4G	.
[2d	2f
=78	=78
4d]	2d
4c	.
4B	1dd
4A	.
1B	.
.	2dd
=79	=79
1A	2.cc
.	4b
2r	2cc
4d	[2dd
4e	.
=80	=80
4f	4dd]
4d	4cc
2.g	4b
.	4a
.	1b
4f	.
4d	.
4e	.
=81	=81
4f	0a
4e	.
2.f	.
4e	.
4d	.
4c	.
=82	=82
2B	2r
2A	2a
1e	2a
.	2g
=83	=83
2r	2.f
2d	.
.	8eL
.	8dJ
2c	4e
.	4d
2B	2dd
=84	=84
2A	2cc
2G	2b
2A	4a
.	4g
2d	4f
.	4e
=85	=85
4d	4f
4c	4d
2B	1g
1A	.
.	2f#i
=86	=86
[0G	1g
.	2r
.	2d
=87	=87
0G]	2e
.	2.g
.	4f
.	4e
.	4d
=88	=88
1r	2c
.	2e
2r	1d
2d	.
=89	=89
2e	2.c
2.g	.
.	4d
.	4e
4f	4f
4e	[2g
4d	.
=90	=90
2c	4g]
.	4c
2e	1cc
1d	.
.	2b
=91	=91
1.c	1cc
.	2r
4B	2c
4A	.
=92	=92
2G	2d
2F	1f
1B-X	.
.	4e
.	4d
=93	=93
2A	2.e
1c	.
.	4f
.	2g
4B	[2a
4A	.
=94	=94
1e	4a]
.	8gL
.	8fJ
.	2g
2r	[1a
[2d	.
=95	=95
2d]	1a]
2c	.
2.d	2r
.	[2d
4c	.
=96	=96
4A	2d]
4B	.
4c	2c
4A	.
2B	2d
2c	2e
=97	=97
4F	2.f
4G	.
4A	.
4B	4d
2c	2e
[2d	[2f
=98	=98
4d]	2f]
4c	.
2B	4e
.	4d
1A	1e
=99	=99
0d	0d
=100	=100
[0d	0r
=101	=101
0d]	2r
.	2a
.	2b-X
.	[2a
=102	=102
1.A	4a]
.	4g
.	8aL
.	8g
.	8f
.	8eJ
.	1f
2B	.
=103	=103
1c	1e
[1d	1r
=104	=104
1d]	1r
1c	2r
.	2a
=105	=105
[0dl	2b-i
.	2.a
.	4g
.	8aL
.	8g
.	8f
.	8eJ
=106	=106
0d]	0fl
=107||	=107||
*M3/1	*M3/1
*met(3)	*met(3)
!!section: Tertia pars: Benedictum fructum
!!!OMD: Tertia pars: Benedictum fructum
0.r	1r
.	1d
.	1d
=108	=108
1A	1e
1A	1.f
1B	.
.	2d
=109	=109
1c	2e
.	2f
2G	1.g
2A	.
2B	.
2A	2f
=110	=110
1c	1e
0G	0d
=111	=111
1g	[0.c
2g	.
2f	.
2e	.
2d	.
=112	=112
1.c	0c]
2B	.
2A	1r
2G	.
=113	=113
1c	0g
1G	.
[1d	[1f
=114	=114
1d]	1f]
0A	0e
=115	=115
1B	1.d
1.d	.
.	2e
.	1f
2c	.
=116	=116
1B	1g
0A	0a
=117	=117
0G	1d
.	1.g
[1g	.
.	2f
=118	=118
2g]	2e
2f	2d
2e	1c
2d	.
1c	[1a
=119	=119
1.d	2a]
.	2g
.	2f
2c	2e
2B	1f
2A	.
=120	=120
1G	1g
0A	0e
=121	=121
1r	0d
1.d	.
.	1r
2e	.
=122	=122
2f	1.d
2g	.
1.a	.
.	2e
.	2f
2g	2g
=123	=123
2f	1a
2e	.
2d	1.b
2c	.
2d	.
2c	2a
=124	=124
2B	0a
2A	.
0B	.
.	1g#i
=125	=125
1A	0a
1.d	.
.	1r
2B	.
=126	=126
1c	0a
1d	.
1B	[1g
=127	=127
1G	1g]
0A	0f
=128	=128
2G	0g
2A	.
2B	.
2c	.
2d	1r
2G	.
=129	=129
1.g	0r
2e	.
1f	1d
=130	=130
1g	1e
1c	1.g
1B	.
.	2f
=131	=131
1c	1e
0G	0d
=132	=132
1.g	0.c
2f	.
2e	.
2d	.
=133	=133
1.c	0.r
2A	.
1B	.
=134	=134
1.c	0.e
2B	.
2A	.
2G	.
=135	=135
1.F	0f
2G	.
1A	1e
=136	=136
1B	1d
0A	0e
=137||	=137||
*M2/1	*M2/1
*met(C|)	*met(C|)
2r	1d
2.d	.
.	1r
4e	.
[2f	.
=138	=138
4f]	[0a
4e	.
2d	.
2c	.
[2d	.
=139	=139
2d]	0a]
4c	.
4B	.
4A	.
4B	.
4c	.
4d	.
=140	=140
0e	0g
=141	=141
2r	[0a
2.d	.
4e	.
[2f	.
=142	=142
4f]	0a]
4e	.
2d	.
2c	.
[2a	.
=143	=143
4a]	0cc
4g	.
2f	.
1e	.
=144	=144
2r	0dd
2.d	.
4e	.
[2f	.
=145	=145
4f]	1.cc
4e	.
4f	.
8eL	.
8dJ	.
2c	.
[2d	[2b
=146	=146
4d]	2b]
4c	.
4B	1a
4A	.
1B	.
.	2g#i
=147	=147
1A	0a
1r	.
=148	=148
2.A	0a
4B	.
4c	.
4A	.
[2d	.
=149	=149
2d]	0r
2c	.
2.d	.
4e	.
=150	=150
4f	0r
4d	.
1g	.
2f	.
=151	=151
1g	1r
1G	2.d
.	4e
=152	=152
0d	4f
.	4d
.	1g
.	2f
=153	=153
2r	2.g
2.g	.
.	4a
.	2b
4f	.
4e	[2cc
4d	.
=154	=154
2c	4cc]
.	4b
1f	4a
.	4g
.	2a
2e	2cc
=155	=155
4d	2b
4c	.
4B	1a
4A	.
1B	.
.	2g#i
=156	=156
2A	1a
1a	.
.	1e
2g	.
=157	=157
1a	2r
.	1a
1e	.
.	2g
=158	=158
0r	2a
.	4d
.	4e
.	4f
.	4d
.	2e
=159	=159
[0a	2.f
.	4e
.	2d
.	2c
=160	=160
0a]	2d
.	1f
.	4e
.	4d
=161	=161
0g	0e
=162	=162
0a	1r
.	2r
.	[2a
=163	=163
1d	4a]
.	4g
.	4a
.	4b
2e	1cc
[2f	.
=164	=164
2f]	1f
2d	.
2e	2g
[2f	[2a
=165	=165
4f]	4a]
4e	4g
4d	2.g
4c	.
1d	.
.	8fL
.	8eJ
.	2f
=166	=166
0c	2g
.	2c
.	4e
.	4d
.	4e
.	4f
=167	=167
2r	1g
2c	.
4e	2.c
4d	.
4e	.
4f	4d
=168	=168
2g	2e
2.a	2f
.	1e
8gL	.
8fJ	.
2g	.
=169	=169
1a	2r
.	1d
1r	.
.	2c
=170	=170
2r	2d
1d	2.f
.	4e
2c	4e
.	8dL
.	8eJ
=171	=171
2d	2f
2d	2f
1A	2e
.	[2a
=172	=172
2r	2a]
2d	4g
.	4f
2c	2g
[2f	[2a
=173	=173
4f]	4a]
4e	4g
1d	4f
.	4e
.	2f
2c	[2g
=174	=174
1B	4g]
.	4f
.	4e
.	4d
1A	2e
.	2e
=175	=175
1r	1d
[1d	1r
=176	=176
2d]	0d
2c	.
2B	.
2A	.
=177	=177
0G	0g
=178	=178
0dl	0fl
==	==
*-	*-
!!!system-decoration: s1,s2
!!!RDF**kern: i = editorial accidental
!!!RDF**kern: l = terminal long
!!!ENC: Janosch Umbreit
!!!END: 2026/02/13
!!!EED: Benjamin Ory
!!!EEV: 2026/02/18
!!!YEC: Copyright 2026 Benjamin Ory, All Rights Reserved
!!!ONB: Translated from MusicXML on 2026/02/18
